!!!COM:	Josquin des Pres
**kern	**kern
*part2	*part1
*staff2	*staff1
*clefGv2	*clefG2
*k[]	*k[]
*M2/1	*M2/1
=1-	=1-
0d	1a
.	2b
.	[2a
=2	=2
0c	2a]
.	4g
.	4f
.	2e
.	2A
=3	=3
0d	2r
.	2a
.	2b
.	[2a
=4	=4
0c	2a]
.	4g
.	4f
.	2e
.	2A
=5	=5
0d	2r
.	2a
.	2b
.	[2a
=6	=6
0f	4a]
.	4g
.	4f
.	4e
.	2d
.	[2dd
=7	=7
0e	2dd]
.	4cc
.	4b
.	4cc
.	4dd
.	4ee
.	4cc
=8	=8
0d	0dd
==	==
*-	*-
